static/img/social_icons/LinkedIn.svg

<svg width="49" height="49" viewBox="0 0 49 49" fill="none" xmlns="http://www.w3.org/2000/svg">
<circle cx="24.5" cy="24.2379" r="23.5" stroke="#DC296C"/>
<path d="M24.4257 21.0756C25.4318 20.0476 26.7418 19.375 28.2657 19.375C29.8661 19.375 31.4009 20.0108 32.5326 21.1424C33.6642 22.2741 34.3 23.8089 34.3 25.4093V33.6379H32.1057V25.4093C32.1057 24.3909 31.7011 23.4141 30.981 22.694C30.2608 21.9739 29.2841 21.5693 28.2657 21.5693C27.2473 21.5693 26.2705 21.9739 25.5504 22.694C24.8303 23.4141 24.4257 24.3909 24.4257 25.4093V33.6379H22.2314V19.9236H24.4257V21.0756ZM16.7457 17.7293C16.3092 17.7293 15.8906 17.5559 15.582 17.2473C15.2734 16.9386 15.1 16.5201 15.1 16.0836C15.1 15.6471 15.2734 15.2285 15.582 14.9199C15.8906 14.6113 16.3092 14.4379 16.7457 14.4379C17.1822 14.4379 17.6008 14.6113 17.9094 14.9199C18.218 15.2285 18.3914 15.6471 18.3914 16.0836C18.3914 16.5201 18.218 16.9386 17.9094 17.2473C17.6008 17.5559 17.1822 17.7293 16.7457 17.7293ZM15.6485 19.9236H17.8428V33.6379H15.6485V19.9236Z" fill="white"/>
</svg>

<svg width="49" height="49" fill="none" xmlns="http://www.w3.org/2000/svg"><circle cx="24.5" cy="24.238" r="23.5" stroke="#DC296C"/><path d="M24.426 21.076c1.006-1.028 2.316-1.701 3.84-1.701a6.035 6.035 0 0 1 6.034 6.034v8.229h-2.194v-8.229a3.84 3.84 0 0 0-7.68 0v8.229H22.23V19.924h2.195v1.152Zm-7.68-3.347a1.646 1.646 0 1 1 0-3.291 1.646 1.646 0 0 1 0 3.291Zm-1.097 2.195h2.194v13.714h-2.194V19.924Z" fill="#fff"/></svg>
